Numix-GalliumOS/48/categories/applications-system.svg

<?xml version="1.0" encoding="UTF-8" standalone="no"?>
<svg
   xmlns:dc="http://purl.org/dc/elements/1.1/"
   xmlns:cc="http://creativecommons.org/ns#"
   xmlns:rdf="http://www.w3.org/1999/02/22-rdf-syntax-ns#"
   xmlns:svg="http://www.w3.org/2000/svg"
   xmlns="http://www.w3.org/2000/svg"
   xmlns:sodipodi="http://sodipodi.sourceforge.net/DTD/sodipodi-0.dtd"
   xmlns:inkscape="http://www.inkscape.org/namespaces/inkscape"
   width="48"
   height="48"
   viewBox="0 0 48 48"
   id="svg2"
   version="1.1"
   inkscape:version="0.91 r"
   sodipodi:docname="applications-system.svg">
  <metadata
     id="metadata10">
    <rdf:RDF>
      <cc:Work
         rdf:about="">
        <dc:format>image/svg+xml</dc:format>
        <dc:type
           rdf:resource="http://purl.org/dc/dcmitype/StillImage" />
        <dc:title />
      </cc:Work>
    </rdf:RDF>
  </metadata>
  <defs
     id="defs8" />
  <sodipodi:namedview
     pagecolor="#ffffff"
     bordercolor="#666666"
     borderopacity="1"
     objecttolerance="10"
     gridtolerance="10"
     guidetolerance="10"
     inkscape:pageopacity="0"
     inkscape:pageshadow="2"
     inkscape:window-width="1680"
     inkscape:window-height="1026"
     id="namedview6"
     showgrid="true"
     inkscape:zoom="10.429825"
     inkscape:cx="20.093177"
     inkscape:cy="13.479723"
     inkscape:window-x="0"
     inkscape:window-y="24"
     inkscape:window-maximized="1"
     inkscape:current-layer="svg2">
    <inkscape:grid
       type="xygrid"
       id="grid4138" />
  </sodipodi:namedview>
  <path
     style="fill:#ee6454"
     d="M 24 6 C 14.080557 6 6 14.080557 6 24 C 6 33.919443 14.080557 42 24 42 C 33.919443 42 42 33.919443 42 24 C 42 14.080557 33.919443 6 24 6 z M 23.75 13 A 2.25 2.25 0 0 1 26 15.25 A 2.25 2.25 0 0 1 23.75 17.5 A 2.25 2.25 0 0 1 21.5 15.25 A 2.25 2.25 0 0 1 23.75 13 z M 20 19 L 26 19 L 26 32.996094 L 29 32.996094 L 29 35 L 19 35 L 19 32.996094 L 22 32.998047 L 22 21 L 20 21 L 20 19 z "
     id="path4" />
</svg>

<svg xmlns="http://www.w3.org/2000/svg" viewBox="0 0 48 48">
 <path d="m 24 6 c -9.919 0 -18 8.08 -18 18 c 0 9.919 8.08 18 18 18 c 9.919 0 18 -8.08 18 -18 c 0 -9.919 -8.08 -18 -18 -18 z m -0.25 7 a 2.25 2.25 0 0 1 2.25 2.25 a 2.25 2.25 0 0 1 -2.25 2.25 a 2.25 2.25 0 0 1 -2.25 -2.25 a 2.25 2.25 0 0 1 2.25 -2.25 z m -3.75 6 l 6 0 l 0 13.996 l 3 0 l 0 2 l -10 0 l 0 -2 l 3 0.002 l 0 -11.998 l -2 0 l 0 -2 z" style="fill:#ee6454"/>
</svg>
